images/types-item-2.svg

<svg width="39" height="35" viewBox="0 0 39 35" fill="none" xmlns="http://www.w3.org/2000/svg">
<path d="M19.1028 1.39303C19.1028 0.899688 18.8121 0.5 18.4608 0.5C18.107 0.5 17.8193 0.898198 17.8193 1.39303C17.8193 1.55524 17.8489 1.70751 17.8515 1.86724C18.2662 1.81408 18.6688 1.75968 19.1239 1.71297C19.1268 1.60566 19.1028 1.50655 19.1028 1.39303Z" fill="#977659"/>
<path d="M34.552 1.39303C34.552 0.899688 34.2639 0.5 33.9097 0.5C33.5562 0.5 33.268 0.898198 33.268 1.39303C33.268 1.50233 33.2458 1.60343 33.2458 1.71297C33.6947 1.75968 34.1004 1.81408 34.5118 1.86724C34.5177 1.71124 34.552 1.55524 34.552 1.39303Z" fill="#977659"/>
<path d="M26.3338 12.2209C30.1487 12.2209 33.2535 7.98898 33.3796 2.72547C31.3531 2.52252 28.9397 2.40552 26.3338 2.40552C23.7266 2.40552 21.3144 2.52451 19.2865 2.72547C19.4114 7.98923 22.5174 12.2209 26.3338 12.2209Z" fill="#AB917A"/>
<path d="M6.1545 28.8116C5.39212 28.0729 4.90932 27.0067 4.90932 25.7873C4.90932 24.5728 5.39212 23.5056 6.1545 22.7671C5.39212 22.0244 4.90932 20.9622 4.90932 19.7428C4.90932 17.4572 6.57736 15.6669 8.70548 15.6669H11.9627C10.939 12.6579 9.62045 12.7342 9.62045 9.50041C9.62045 8.4417 9.64299 7.54073 9.6369 6.77638H9.95978H13.0243C13.0243 5.07006 11.6495 3.68941 9.95978 3.68941L7.11364 2.85327L6.29348 3.68941H1.10261V4.50618H0.112157V5.95961H1.10243V6.77638H4.84332L1.45875 12.9876H2.64383L5.78422 7.22873C5.50713 8.473 5.36385 10.0958 5.38103 12.1628C5.41322 16.2208 0 19.5068 0 26.6632C0 33.6983 2.5068 34.3265 5.74039 34.3799C5.22791 33.6871 4.90932 32.8142 4.90932 31.8358C4.91075 30.6173 5.39212 29.5541 6.1545 28.8116Z" fill="#142245"/>
<path d="M34.4665 2.40552C34.2829 8.57746 30.6392 13.531 26.1504 13.531C21.6607 13.531 18.0191 8.57746 17.8322 2.40552C15.081 2.76447 13.301 3.2891 13.301 3.88131L14.6333 15.7773H21.0381C23.1662 15.7773 24.8344 17.5673 24.8344 19.8495C24.8344 21.0689 24.3491 22.137 23.5864 22.8758C24.3491 23.6146 24.8344 24.6817 24.8344 25.9002C24.8344 27.1156 24.3491 28.1818 23.5864 28.9203C24.3491 29.6648 24.8344 30.7312 24.8344 31.9467C24.8344 32.9003 24.5269 33.7633 24.0337 34.4534C24.716 34.4832 25.4215 34.5 26.1506 34.5C31.4717 34.5 35.7886 33.6242 35.7886 32.5498L39 3.88354C39.0012 3.28886 37.2176 2.76223 34.4665 2.40552Z" fill="#142245"/>
<path d="M21.3392 17.1821H8.58851C7.1531 17.1821 5.98547 18.3403 5.98547 19.7676C5.98547 21.1939 7.1531 22.354 8.58851 22.354H21.3392C22.7756 22.354 23.9419 21.1939 23.9419 19.7676C23.9419 18.3403 22.7756 17.1821 21.3392 17.1821Z" fill="#96A4D3"/>
<path d="M8.58851 23.093C7.1531 23.093 5.98547 24.2505 5.98547 25.6765C5.98547 27.1076 7.1531 28.2649 8.58851 28.2649H21.3392C22.7756 28.2649 23.9419 27.1076 23.9419 25.6765C23.9419 24.2503 22.7784 23.093 21.3392 23.093H8.58851Z" fill="#96A4D3"/>
<path d="M21.3392 29.0039H8.58851C7.1531 29.0039 5.98547 30.1607 5.98547 31.5904C5.98547 33.019 7.1531 34.1758 8.58851 34.1758H21.3392C22.7756 34.1758 23.9419 33.0187 23.9419 31.5904C23.9419 30.1607 22.7756 29.0039 21.3392 29.0039Z" fill="#96A4D3"/>
</svg>

<svg width="39" height="35" fill="none" xmlns="http://www.w3.org/2000/svg"><path d="M19.103 1.393c0-.493-.29-.893-.642-.893-.354 0-.642.398-.642.893 0 .162.03.315.033.474.414-.053.817-.107 1.272-.154.003-.107-.021-.206-.021-.32zm15.449 0C34.552.9 34.264.5 33.91.5c-.354 0-.642.398-.642.893 0 .11-.022.21-.022.32.449.047.854.101 1.266.154.006-.156.04-.312.04-.474z" fill="#977659"/><path d="M26.334 12.22c3.815 0 6.92-4.231 7.046-9.495-2.027-.202-4.44-.32-7.046-.32-2.607 0-5.02.12-7.047.32.124 5.264 3.23 9.496 7.047 9.496z" fill="#AB917A"/><path d="M6.154 28.812c-.762-.74-1.245-1.805-1.245-3.025 0-1.214.483-2.281 1.245-3.02-.762-.743-1.245-1.805-1.245-3.024 0-2.286 1.668-4.076 3.796-4.076h3.258C10.939 12.657 9.62 12.734 9.62 9.5c0-1.058.023-1.96.017-2.724h3.387c0-1.706-1.374-3.087-3.064-3.087l-2.846-.836-.82.836H1.102v.817h-.99V5.96h.99v.816h3.74L1.46 12.988h1.185l3.14-5.76c-.277 1.245-.42 2.868-.403 4.935C5.413 16.22 0 19.507 0 26.663c0 7.035 2.507 7.664 5.74 7.717a4.25 4.25 0 01-.83-2.544c0-1.219.482-2.282 1.244-3.024zM34.467 2.406c-.184 6.171-3.828 11.125-8.317 11.125-4.49 0-8.13-4.954-8.318-11.125-2.751.358-4.531.883-4.531 1.475l1.332 11.896h6.405c2.128 0 3.796 1.79 3.796 4.072 0 1.22-.485 2.288-1.248 3.027.763.739 1.248 1.806 1.248 3.024 0 1.216-.485 2.282-1.248 3.02.763.745 1.248 1.811 1.248 3.027 0 .953-.307 1.816-.8 2.506.682.03 1.388.047 2.117.047 5.32 0 9.638-.876 9.638-1.95L39 3.884c.001-.595-1.782-1.122-4.533-1.478z" fill="#142245"/><path d="M21.34 17.182H8.588a2.596 2.596 0 00-2.604 2.586 2.598 2.598 0 002.604 2.586h12.75a2.597 2.597 0 002.603-2.586 2.595 2.595 0 00-2.603-2.586zM8.589 23.093a2.595 2.595 0 00-2.604 2.584 2.596 2.596 0 002.604 2.588h12.75a2.595 2.595 0 002.603-2.588 2.592 2.592 0 00-2.603-2.584H8.59zm12.751 5.911H8.588a2.595 2.595 0 00-2.604 2.586 2.595 2.595 0 002.604 2.586h12.75a2.594 2.594 0 002.603-2.586 2.595 2.595 0 00-2.603-2.586z" fill="#96A4D3"/></svg>
